X:10909
T:Miss Lyon's Fancy
R:reel
S:(Sharon Shannon)
H:
N:
D:Galway Arts Festival Concert
Z:Adrian Scahill
M:4/4
L:1/8
K:D
D2FA DAFA|dfed c2Ac|d2cA BdAF|GBAF GFEF|\
D2FA DAFA|dfed cABc|d2cA BdAF|GBAG FDD2:||\
a2fa dafa|gfed cdeg|a2fa dafa|bgeg fddf|\
a2fa dafa|gfed cdeg|a2ec dBAF|G2AG FDD2:||
